!!!!SEGMENT: pl-stab--3b--001-002_rodowski-aleksander--modlitwa-in-b-umysl.krn
!!!cenid: 18xx:3423
!!!COM: Rodowski, Aleksander
!!!COM-rismid: pe30009627
!!!CDT: <1790->1810
!!!CNT: Polish
!!!OPR: Modlitwa in B
!!!OTL: Umysł
!!!OMV: 002
!!!PDT: 1806
!!!AGN:
!!!SMS-siglum: PL-STAb
!!!SMS-shelfmark: 3b
!!!SMS-shelfwork: 001-002 M
!!!SMS-variant:
!!!SMS-altvar:
!!!NIFC-rismid: 301050648
!!!URL-scan: https://repozytorium.nifc.pl/islandora/object/pl-stab%3A961/datastream/PDF/view
!!!ONB-nifc: UWAGA: części Modlitwy: 1. Przed oczy twoie (Adagio), 2. Umysł utrapieniem (Moderatto), 3. Życie w uciskach (Adagio), 4. Jeżeli sprawiedliwie (Moderato), 5. Wyznawamy (Adagio), 6. Kiedy nas karzesz (Adagio), 7. Oto nas masz (Andante), 8. Racz nam tedy dać (Allegro)
!!!key: E-
**kern	**kern	**dynam	**kern	**kern	**dynam	**kern	**text	**kern	**kern
*part6	*part6	*part6	*part5	*part4	*part4	*part3	*part3	*part2	*part1
*staff7	*staff6	*	*staff5	*staff4	*	*staff3	*staff3	*staff2	*staff1
*	*	*	*group2	*group2	*	*group1	*	*group1	*group1
*I"Organo	*	*	*I"Violino Secundo	*I"Violino Primo	*	*I"Baſso	*	*I"Tenor	*I"Canto.
*I'org	*	*	*I'vl 2	*I'vl 1	*	*I'B	*	*I'T	*I'S
*Iorgan	*	*	*Ivioln	*Ivioln	*	*Ibass	*	*Itenor	*Isoprn
*ICklav	*	*	*ICstr	*ICstr	*	*ICvox	*	*ICvox	*ICvox
*IGacmp	*	*	*IGacmp	*IGacmp	*	*IGcoro	*	*IGcoro	*IGcoro
*clefF4	*clefG2	*	*clefG2	*clefG2	*	*clefF4	*	*	*
*k[b-e-a-]	*k[b-e-a-]	*	*k[b-e-a-]	*k[b-e-a-]	*	*k[b-e-a-]	*	*	*
*E-:	*E-:	*	*E-:	*E-:	*	*E-:	*	*	*
*M2/4	*M2/4	*	*M2/4	*M2/4	*	*M2/4	*	*	*
=1	=1	=1	=1	=1	=1	=1	=1	=1	=1
!	!	!	!LO:TX:t=[segno]:problem:znak segno na kresce taktowej	!LO:TX:t=[segno]:problem:znak segno na kresce taktowej	!	!	!	!	!
!LO:TX:t=P:problem:mixed beam	!LO:TX:a:B:t=Moderatto	!	!LO:TX:a:B:t=Andante	!LO:TX:a:B:t=Andante	!	!LO:TX:a:B:t=Moderato	!	!LO:TX:a:t=Umysł Tacet Baſso Solo	!LO:TX:a:t=Umysł Tacet Baſso Solo
16EE-/LL	8b-L 8g\	.	8g/L	8b-\L	.	0r	.	2ryy	2ryy
16E-\	.	.	.	.	.	.	.	.	.
16E-\	8b- 8g\	.	8g/	8b-\	.	.	.	.	.
16E-\JJ	.	.	.	.	.	.	.	.	.
*tremolo	*	*	*	*	*	*	*	*	*
16E-\LL	8cc 8a-\	.	8a-/	8cc\	.	.	.	.	.
16E-\	.	.	.	.	.	.	.	.	.
16E-\	8ddJ 8f\	.	8f/J	8dd\J	.	.	.	.	.
16E-\JJ	.	.	.	.	.	.	.	.	.
=2	=2	=2	=2	=2	=2	=2	=2	=2	=2
*rep	*	*	*	*	*	*	*	*	*
16E-\LL	4.ee- 4.g\	.	4.g/	4.ee-\	.	.	.	2ryy	2ryy
16E-\	.	.	.	.	.	.	.	.	.
16E-\	.	.	.	.	.	.	.	.	.
16E-\JJ	.	.	.	.	.	.	.	.	.
*Xrep	*	*	*	*	*	*	*	*	*
*rep	*	*	*	*	*	*	*	*	*
16E-\LL	.	.	.	.	.	.	.	.	.
16E-\	.	.	.	.	.	.	.	.	.
16E-\	8b- 8g\	.	8g/	8b-/	.	.	.	.	.
16E-\JJ	.	.	.	.	.	.	.	.	.
*Xrep	*	*	*	*	*	*	*	*	*
=3	=3	=3	=3	=3	=3	=3	=3	=3	=3
*rep	*	*	*	*	*	*	*	*	*
16E-\LL	8ccL 8a-\	.	8a-/L	8cc\L	.	.	.	2ryy	2ryy
16E-\	.	.	.	.	.	.	.	.	.
16E-\	8ee- 8cc\	.	8cc/	8ee-\	.	.	.	.	.
16E-\JJ	.	.	.	.	.	.	.	.	.
*Xrep	*	*	*	*	*	*	*	*	*
*rep	*	*	*	*	*	*	*	*	*
16E-\LL	8dd 8b-\	.	8b-/	8dd\	.	.	.	.	.
16E-\	.	.	.	.	.	.	.	.	.
16E-\	8ccJ 8a-\	.	8a-/J	8cc\J	.	.	.	.	.
16E-\JJ	.	.	.	.	.	.	.	.	.
*Xrep	*	*	*	*	*	*	*	*	*
*Xtremolo	*	*	*	*	*	*	*	*	*
=4	=4	=4	=4	=4	=4	=4	=4	=4	=4
!LO:TX:t=P:problem:mixed beam	!	!	!	!	!	!	!	!	!
16EE-/LL	8b-L 8g\	.	8a-/L	8b-L 8e-/	.	.	.	2ryy	2ryy
16E-\	.	.	.	.	.	.	.	.	.
16E-\	8gg 8ee- 8b-\	.	8g 8G/	8gg 8b- 8e- 8G/	.	.	.	.	.
16E-\JJ	.	.	.	.	.	.	.	.	.
8E-\	8ggJ 8ee- 8b-\	.	8gJ 8G/	8ggJ 8b- 8e- 8G/	.	.	.	.	.
!LO:TX:t=[segno]:problem:znak segno na kresce taktowej	!LO:TX:t=[segno]:problem:znak segno na kresce taktowej	!	!	!	!	!	!	!	!
8r	8r	.	8r	8r	.	.	.	.	.
=5	=5	=5	=5	=5	=5	=5	=5	=5	=5
!LO:TX:t=P:problem:mixed beam	!	!	!	!	!	!	!	!	!
16EE-/LL	8a-L 8f\	.	8f/L	8a-/L	.	0r	.	2ryy	2ryy
16E-\	.	.	.	.	.	.	.	.	.
16E-\	8cc 8a-\	.	8a-/	8cc/	.	.	.	.	.
16E-\JJ	.	.	.	.	.	.	.	.	.
*tremolo	*	*	*	*	*	*	*	*	*
16E-\LL	8b- 8g\	.	8g/	8b-/	.	.	.	.	.
16E-\	.	.	.	.	.	.	.	.	.
16E-\	8a-J 8f\	.	8f/J	8a-/J	.	.	.	.	.
16E-\JJ	.	.	.	.	.	.	.	.	.
*Xtremolo	*	*	*	*	*	*	*	*	*
=6	=6	=6	=6	=6	=6	=6	=6	=6	=6
!LO:TX:t=P:problem:mixed beam	!	!	!	!	!	!	!	!	!
16EE-/LL	8gL 8e-/	.	8f/L	8g/L	.	.	.	2ryy	2ryy
16E-\	.	.	.	.	.	.	.	.	.
16E-\	8ee- 8b- 8g/	.	8e- 8G/	8ee- 8e- 8G/	.	.	.	.	.
16E-\JJ	.	.	.	.	.	.	.	.	.
8E-\	8ee-J 8b- 8g/	.	8e-J 8G/	8ee-J 8e- 8G/	.	.	.	.	.
8r	8r	.	8r	8r	.	.	.	.	.
=7	=7	=7	=7	=7	=7	=7	=7	=7	=7
8B- 8BB-\	8b-\L	.	4d 4B-/	8b-\L	.	.	.	2ryy	2ryy
8r	16cc\L	.	.	16cc\L	.	.	.	.	.
.	16dd\JJ	.	.	16dd\JJ	.	.	.	.	.
4r	16ee-\LL	.	4r	16ee-\LL	.	.	.	.	.
.	16ff\	.	.	16ff\	.	.	.	.	.
.	16gg\	.	.	16gg\	.	.	.	.	.
.	16aa-\JJ	.	.	16aa-\JJ	.	.	.	.	.
=8	=8	=8	=8	=8	=8	=8	=8	=8	=8
*	*	*	*tremolo	*	*	*	*	*	*
8r	16bb-\LL	.	16b-LL 16d/	16bb-\LL	.	.	.	2ryy	2ryy
.	16aa-\JJ	.	16b- 16d/	16aa-\JJ	.	.	.	.	.
8f\L	4aa-\	.	16b- 16d/	4aa-\	.	.	.	.	.
.	.	.	16b- 16d/	.	.	.	.	.	.
8d\	.	.	16b- 16d/	.	.	.	.	.	.
.	.	.	16b- 16d/	.	.	.	.	.	.
8B-\J	16ff\LL	.	16b- 16d/	16ff\LL	.	.	.	.	.
.	16aa-\JJ	.	16b-JJ 16d/	16aa-\JJ	.	.	.	.	.
!LO:LB:g=original	!LO:LB:g=original	!	!	!	!	!	!	!	!
=9	=9	=9	=9	=9	=9	=9	=9	=9	=9
8r	16aa-\LL	.	16b-LL 16e-/	16aa-\LL	.	0r	.	2ryy	2ryy
.	16gg\JJ	.	16b- 16e-/	16gg\JJ	.	.	.	.	.
8e-\L	4gg\	.	16b- 16e-/	4gg\	.	.	.	.	.
.	.	.	16b- 16e-/	.	.	.	.	.	.
8B-\	.	.	16b- 16e-/	.	.	.	.	.	.
.	.	.	16b- 16e-/	.	.	.	.	.	.
8G\J	16ee-\LL	.	16b- 16e-/	16ee-\LL	.	.	.	.	.
.	16gg\JJ	.	16b-JJ 16e-/	16gg\JJ	.	.	.	.	.
*	*	*	*Xtremolo	*	*	*	*	*	*
!	!	!	!	!LO:LB:g=original	!	!	!	!	!
=10	=10	=10	=10	=10	=10	=10	=10	=10	=10
!LO:TX:t=P:problem:mixed beam	!	!	!	!	!	!	!	!	!
16AA-/LL	8.ff\L	.	8a-\L	8.ff\L	.	.	.	2ryy	2ryy
16A-\	.	.	.	.	.	.	.	.	.
16A-\	.	.	16b-\L	.	.	.	.	.	.
16A-\JJ	32gg\LL	.	16cc\JJ	32gg\LL	.	.	.	.	.
.	32aa-\JJJ	.	.	32aa-\JJJ	.	.	.	.	.
16B-\LL	8gg\L	.	16g\LL	8ee-\L	.	.	.	.	.
16B-\	.	.	16b-\	.	.	.	.	.	.
16B-\	8ff\J	.	16f\	8dd\J	.	.	.	.	.
16B-\JJ	.	.	16b-\JJ	.	.	.	.	.	.
=11	=11	=11	=11	=11	=11	=11	=11	=11	=11
16E-\LL	8ee-L 8b- 8g\	.	8e-L 8G/	8ee-L 8e- 8G/	.	.	.	2ryy	2ryy
16E-\	.	.	.	.	.	.	.	.	.
16G\	8ee- 8b- 8g\	.	8g 8B-/	8ee- 8e- 8G/	.	.	.	.	.
16B-\JJ	.	.	.	.	.	.	.	.	.
8e-\	8ee-J 8b- 8g\	.	8gJ 8B-/	8ee-J 8e- 8G/	.	.	.	.	.
8r	8r	.	8r	8r	.	.	.	.	.
=12	=12	=12	=12	=12	=12	=12	=12	=12	=12
8B- 8BB-\	8b-\L	.	4d 4B-/	8b-\L	.	.	.	2ryy	2ryy
8r	16cc\L	.	.	16cc\L	.	.	.	.	.
.	16dd\JJ	.	.	16dd\JJ	.	.	.	.	.
4r	16ee-\LL	.	4r	16ee-\LL	.	.	.	.	.
.	16ff\	.	.	16ff\	.	.	.	.	.
.	16gg\	.	.	16gg\	.	.	.	.	.
.	16aa-\JJ	.	.	16aa-\JJ	.	.	.	.	.
!	!	!	!LO:LB:g=original	!	!	!	!	!	!
=13	=13	=13	=13	=13	=13	=13	=13	=13	=13
*	*	*	*tremolo	*	*	*	*	*	*
8r	16bb-\LL	.	16b-LL 16d/	16bb-\LL	.	0r	.	2ryy	2ryy
.	16aa-\JJ	.	16b- 16d/	16aa-\JJ	.	.	.	.	.
8f\L	4aa-\	.	16b- 16d/	4aa-\	.	.	.	.	.
.	.	.	16b- 16d/	.	.	.	.	.	.
8d\	.	.	16b- 16d/	.	.	.	.	.	.
.	.	.	16b- 16d/	.	.	.	.	.	.
8B-\J	16ff\LL	.	16b- 16d/	16ff\LL	.	.	.	.	.
.	16aa-\JJ	.	16b-JJ 16d/	16aa-\JJ	.	.	.	.	.
=14	=14	=14	=14	=14	=14	=14	=14	=14	=14
8r	16aa-\LL	.	16b-LL 16e-/	16aa-\LL	.	.	.	2ryy	2ryy
.	16gg\JJ	.	16b- 16e-/	16gg\JJ	.	.	.	.	.
8e-\L	4gg\	.	16b- 16e-/	4gg\	.	.	.	.	.
.	.	.	16b- 16e-/	.	.	.	.	.	.
8B-\	.	.	16b- 16e-/	.	.	.	.	.	.
.	.	.	16b- 16e-/	.	.	.	.	.	.
8G\J	16ee-\LL	.	16b- 16e-/	16ee-\LL	.	.	.	.	.
.	16gg\JJ	.	16b-JJ 16e-/	16gg\JJ	.	.	.	.	.
*	*	*	*Xtremolo	*	*	*	*	*	*
=15	=15	=15	=15	=15	=15	=15	=15	=15	=15
!LO:TX:t=P:problem:mixed beam	!	!	!	!	!	!	!	!	!
16AA-/LL	8.ff\L	.	8a-\L	8.ff\L	.	.	.	2ryy	2ryy
16A-\	.	.	.	.	.	.	.	.	.
16A-\	.	.	16b-\L	.	.	.	.	.	.
16A-\JJ	32gg\LL	.	16cc\JJ	32gg\LL	.	.	.	.	.
.	32aa-\JJJ	.	.	32aa-\JJJ	.	.	.	.	.
16B-\LL	8gg\L	.	16g\LL	8ee-\L	.	.	.	.	.
16B-\	.	.	16b-\	.	.	.	.	.	.
16B-\	8ff\J	.	16f\	8dd\J	.	.	.	.	.
16B-\JJ	.	.	16b-\JJ	.	.	.	.	.	.
=16	=16	=16	=16	=16	=16	=16	=16	=16	=16
.	8qqb-/	.	.	8qqb-/	.	.	.	.	.
!LO:TX:t=P:problem:mixed beam	!	!	!	!	!	!	!	!	!
16GG/LL	4bb-\	.	16e-LL 16G/	4bb-\	.	.	.	2ryy	2ryy
16G\	.	.	16e- 16G/	.	.	.	.	.	.
16G\	.	.	16e- 16G/	.	.	.	.	.	.
16G\JJ	.	.	16e-JJ 16G/	.	.	.	.	.	.
*tremolo	*	*	*	*	*	*	*	*	*
16G\LL	16aa-\LL	.	16e-LL 16G/	16aa-\LL	.	.	.	.	.
16G\	16gg\	.	16e- 16G/	16gg\	.	.	.	.	.
16G\	16ff\	.	16g 16G/	16ff\	.	.	.	.	.
16G\JJ	16een\JJ	.	16gJJ 16G/	16een\JJ	.	.	.	.	.
!LO:LB:g=original	!LO:LB:g=original	!	!	!	!	!	!	!	!
=17	=17	=17	=17	=17	=17	=17	=17	=17	=17
!	!LO:N:vis=8	!	!	!LO:N:vis=8	!	!	!	!	!
16A-\LL	8.ff\L	.	16fLL 16A-/	8.ff\L	.	0r	.	2ryy	2ryy
16A-\	.	.	16f 16A-/	.	.	.	.	.	.
16A-\	.	.	16f 16A-/	.	.	.	.	.	.
16A-\JJ	32gg\LL	.	16fJJ 16A-/	32gg\LL	.	.	.	.	.
.	32aa-\JJJ	.	.	32aa-\JJJ	.	.	.	.	.
16B-\LL	8gg\L	.	16e-LL 16B-/	8gg\L	.	.	.	.	.
16B-\	.	.	16e- 16B-/	.	.	.	.	.	.
16B-\	8ff\J	.	16d 16B-/	8ff\J	.	.	.	.	.
16B-\JJ	.	.	16dJJ 16B-/	.	.	.	.	.	.
=18	=18	=18	=18	=18	=18	=18	=18	=18	=18
.	8qqb-/	.	.	8qqb-/	.	.	.	.	.
*2\right	*	*	*	*	*	*	*	*	*
!	!	!	!LO:TX:t=P:problem:takty nr 18-19 zapisane repetycją	!	!	!	!	!	!
16G\LL	4bb-\	.	16e-LLyy 16G/yy	4bb-\	.	.	.	2ryy	2ryy
16G\	.	.	16e-yy 16G/yy	.	.	.	.	.	.
16G\	.	.	16e-yy 16G/yy	.	.	.	.	.	.
16G\	.	.	16e-JJyy 16G/yy	.	.	.	.	.	.
16G\	16aa-\LL	.	16e-LLyy 16G/yy	16aa-\LL	.	.	.	.	.
16G\	16gg\	.	16e-yy 16G/yy	16gg\	.	.	.	.	.
16G\	16ff\	.	16gyy 16G/yy	16ff\	.	.	.	.	.
16G\JJ	16een\JJ	.	16gJJyy 16G/yy	16een\JJ	.	.	.	.	.
!	!	!	!	!LO:LB:g=original	!	!	!	!	!
=19	=19	=19	=19	=19	=19	=19	=19	=19	=19
16A-\LL	16ff\LL	.	16fLLyy 16A-/yy	16ff\LL	.	.	.	2ryy	2ryy
16A-\	16gg\	.	16fyy 16A-/yy	16gg\	.	.	.	.	.
16A-\	16aa-\	.	16fyy 16A-/yy	16aa-\	.	.	.	.	.
16A-\JJ	16ff\JJ	.	16fJJyy 16A-/yy	16ff\JJ	.	.	.	.	.
16B-\LL	8ee-\L	.	16e-LLyy 16B-/yy	8gg\L	.	.	.	.	.
16B-\	.	.	16e-yy 16B-/yy	.	.	.	.	.	.
16B-\	8dd\J	.	16dyy 16B-/yy	8ff\J	.	.	.	.	.
16B-\JJ	.	.	16dJJyy 16B-/yy	.	.	.	.	.	.
*Xtremolo	*	*	*	*	*	*	*	*	*
=20	=20	=20	=20	=20	=20	=20	=20	=20	=20
16e-\	16ee-\	.	8e-/	8ee-\	.	.	.	2ryy	2ryy
16r	16r	.	.	.	.	.	.	.	.
8B-\	8b-/	.	16r	16r	.	.	.	.	.
.	.	.	16b-/	16b-/	.	.	.	.	.
16e-\LL	16ee-\LL	.	16ee-\LL	16ee-\LL	.	.	.	.	.
16B-\	16b-\	.	16b-\	16b-\	.	.	.	.	.
16e-\	16ee-\	.	16ee-\	16ee-\	.	.	.	.	.
16B-\JJ	16b-\JJ	.	16b-\JJ	16b-\JJ	.	.	.	.	.
=21	=21	=21	=21	=21	=21	=21	=21	=21	=21
8G\	8g/	.	8g/	8g/	.	1r	.	2ryy	2ryy
16r	16r	.	16r	16r	.	.	.	.	.
16G\	16g/	.	16g/	16g/	.	.	.	.	.
16B-\LL	16b-/LL	.	16b-/LL	16b-/LL	.	.	.	.	.
16G\	16g/	.	16g/	16g/	.	.	.	.	.
16B-\	16b-/	.	16b-/	16b-/	.	.	.	.	.
16G\JJ	16g/JJ	.	16g/JJ	16g/JJ	.	.	.	.	.
=22	=22	=22	=22	=22	=22	=22	=22	=22	=22
8E-\L	8e-/L	.	8e-L 8G/	8e-/L	.	.	.	2ryy	2ryy
8e-\	8ee- 8e-/	.	8e- 8G/	8gg 8b- 8e- 8G/	.	.	.	.	.
8B-\	8ee- 8e-/	.	8e- 8G/	8gg 8b- 8e- 8G/	.	.	.	.	.
8G\J	8ee-J 8e-/	.	8e-J 8G/	8ggJ 8b- 8e- 8G/	.	.	.	.	.
=23	=23	=23	=23	=23	=23	=23	=23	=23	=23
4G;\	4ee- 4e-;/	.	4e- 4G/	4gg 4b- 4e- 4G/	.	2r	.	2ryy	2ryy
!	!	!	!LO:TX:t=P:problem:fermata na kresce taktowej	!LO:TX:t=P:problem:fermata na kresce taktowej	!	!	!	!	!
!	!LO:TX:b:i:t=finis	!	!LO:TX:b:i:t=finis	!LO:TX:b:i:t=finis	!	!	!	!	!
4r	4r	.	4r;	4r;	.	.	.	.	.
=24||	=24||	=24||	=24||	=24||	=24||	=24||	=24||	=24||	=24||
*	*	*	*	*	*	*clefC3	*	*	*
!LO:TX:t=P:problem:mixed beam	!	!LO:DY:a	!	!	!	!LO:TX:a:i:t=alto Solo	!	!	!
16EE-/LL	8gL 8B-/	p	1r	1r	.	8b-\	U-	2ryy	2ryy
16E-\	.	.	.	.	.	.	.	.	.
16E-\	8g 8B-/	.	.	.	.	8b-\	-mysł	.	.
16E-\JJ	.	.	.	.	.	.	.	.	.
*tremolo	*	*	*	*	*	*	*	*	*
16E-\LL	8a- 8c/	.	.	.	.	8cc\	u-	.	.
16E-\	.	.	.	.	.	.	.	.	.
16E-\	8fJ 8d/	.	.	.	.	8dd\	-tra-	.	.
16E-\JJ	.	.	.	.	.	.	.	.	.
!LO:LB:g=original	!LO:LB:g=original	!	!	!	!	!	!	!	!
=25	=25	=25	=25	=25	=25	=25	=25	=25	=25
16E-\LL	4.g 4.e-/	.	.	.	.	4.ee-\	-pie-	2ryy	2ryy
16E-\	.	.	.	.	.	.	.	.	.
16E-\	.	.	.	.	.	.	.	.	.
16E-\JJ	.	.	.	.	.	.	.	.	.
16E-\LL	.	.	.	.	.	.	.	.	.
16E-\	.	.	.	.	.	.	.	.	.
16E-\	8g 8B-/	.	.	.	.	8b-\	-niem	.	.
16E-\JJ	.	.	.	.	.	.	.	.	.
=26	=26	=26	=26	=26	=26	=26	=26	=26	=26
*rep	*	*	*	*	*	*	*	*	*
16E-\LL	8a-L 8c/	.	2r	2r	.	(8cc\L	sro-	2ryy	2ryy
16E-\	.	.	.	.	.	.	.	.	.
16E-\	8a- 8e-/	.	.	.	.	8ee-\J)	.	.	.
16E-\JJ	.	.	.	.	.	.	.	.	.
*Xrep	*	*	*	*	*	*	*	*	*
*rep	*	*	*	*	*	*	*	*	*
16E-\LL	8a- 8d/	.	.	.	.	8dd\	-dze	.	.
16E-\	.	.	.	.	.	.	.	.	.
16E-\	8a-J 8c/	.	.	.	.	8cc\	sci-	.	.
16E-\JJ	.	.	.	.	.	.	.	.	.
*Xrep	*	*	*	*	*	*	*	*	*
*Xtremolo	*	*	*	*	*	*	*	*	*
!	!	!	!LO:LB:g=original	!	!	!	!	!	!
=27	=27	=27	=27	=27	=27	=27	=27	=27	=27
!LO:TX:t=P:problem:mixed beam	!LO:TX:t=P:problem:mixed beam	!	!	!	!	!	!	!	!
16EE-/LL	8.a-L 8.c/	.	8r	8r	.	8cc\	-snio-	2ryy	2ryy
16E-\	.	.	.	.	.	.	.	.	.
16E-\	.	.	8e-L 8E-/	8ggL 8b- 8e- 8G/	.	8b-\	-ny	.	.
!	!LO:TX:b:t=g	!	!	!	!	!	!	!	!
16E-\JJ	16gL 16d/	.	.	.	.	.	.	.	.
8E-\	16gg 16ee- 16b-\	.	8e-J 8E-/	8ggJ 8b- 8e- 8G/	.	4r	.	.	.
.	16ggJJ 16ee- 16b-\	.	.	.	.	.	.	.	.
8r	8r	.	8r	8r	.	.	.	.	.
=28	=28	=28	=28	=28	=28	=28	=28	=28	=28
*	*	*	*	*	*	*	*ij	*	*
!LO:TX:t=P:problem:mixed beam	!	!	!	!	!	!	!	!	!
16EE-/LL	8a-L 8f/	.	2r	2r	.	8a-\L	sro-	2ryy	2ryy
16E-\	.	.	.	.	.	.	.	.	.
16E-\	8cc 8a-/	.	.	.	.	8cc\J	.	.	.
16E-\JJ	.	.	.	.	.	.	.	.	.
*tremolo	*	*	*	*	*	*	*	*	*
16E-\LL	8b- 8g/	.	.	.	.	8b-\	-dze	.	.
16E-\	.	.	.	.	.	.	.	.	.
16E-\	8a-J 8f/	.	.	.	.	8a-\	sci-	.	.
16E-\JJ	.	.	.	.	.	.	.	.	.
*Xtremolo	*	*	*	*	*	*	*	*	*
!	!	!	!	!	!	!LO:LB:g=original	!	!	!
=29	=29	=29	=29	=29	=29	=29	=29	=29	=29
!LO:TX:t=P:problem:mixed beam	!	!	!	!	!	!	!	!	!
16EE-/LL	8a-L 8f/	.	8r	8r	.	8a-\	-snio-	2ryy	2ryy
16E-\	.	.	.	.	.	.	.	.	.
16E-\	16gL 16e-/	.	8gL 8G/	8ee-L 8e-/	.	8g\	-ny	.	.
*	*	*	*	*	*	*	*Xij	*	*
16E-\JJ	16ee-JJ 16b- 16g/	.	.	.	.	.	.	.	.
8E-\	8ee- 8b- 8g/	.	8gJ 8G/	8ee-J 8e-/	.	4r	.	.	.
8r	8r	.	8r	8r	.	.	.	.	.
=30	=30	=30	=30	=30	=30	=30	=30	=30	=30
4BB-/	4f 4d/	.	0r	0r	.	4f\	a	2ryy	2ryy
4B-\	8fL 8d/	.	.	.	.	8b-\	u-	.	.
.	8fJ 8d/	.	.	.	.	8b-\	-por	.	.
=31	=31	=31	=31	=31	=31	=31	=31	=31	=31
!LO:TX:t=P:problem:mixed beam	!	!	!	!	!	!	!	!	!
8F\L	8fL 8c/	.	.	.	.	8an\L	w_złym	2ryy	2ryy
8FF/J	8fJ 8e-/	.	.	.	.	8cc\J	.	.	.
4BB-/	4f 4d/	.	.	.	.	4b-\	trwa	.	.
=32	=32	=32	=32	=32	=32	=32	=32	=32	=32
*	*	*	*	*	*	*	*ij	*	*
4BB-/	4f 4d/	.	.	.	.	4f\	a	2ryy	2ryy
4B-\	8b-L 8d/	.	.	.	.	8dd\	u-	.	.
.	8b-J 8d/	.	.	.	.	8dd\	-por	.	.
=33	=33	=33	=33	=33	=33	=33	=33	=33	=33
!LO:TX:t=P:problem:mixed beam	!LO:SIC:v:n=1:s=8anL	!	!	!	!	!	!	!	!
8F\L	8a-L 8c/	.	.	.	.	8cc\L	w_złym	2ryy	2ryy
8FF/J	8ccJ 8e-/	.	.	.	.	8ee-\J	.	.	.
4BB-/	4b- 4d/	.	.	.	.	4dd\	trwa	.	.
*	*	*	*	*	*	*	*Xij	*	*
=34	=34	=34	=34	=34	=34	=34	=34	=34	=34
*	*tremolo	*	*tremolo	*tremolo	*	*	*	*	*
!LO:TX:t=P:problem:mixed beam	!	!	!	!	!	!	!	!	!
16DD/LL	16b-LL 16f/	.	16d/LL	16f/LL	pp	4ff\	nic	2ryy	2ryy
16D\	16b- 16f/	.	16d/	16f/	.	.	.	.	.
16D\	16b- 16f/	.	16d/	16f/	.	.	.	.	.
16D\JJ	16b- 16f/	.	16d/	16f/	.	.	.	.	.
*tremolo	*	*	*	*	*	*	*	*	*
16D\LL	16b- 16f/	.	16d/	16f/	.	(8dd\	nie-	.	.
16D\	16b- 16f/	.	16d/	16f/	.	.	.	.	.
16D\	16b- 16f/	.	16d/	16f/	.	8b-\)	.	.	.
16D\JJ	16b-JJ 16f/	.	16d/JJ	16f/JJ	.	.	.	.	.
*	*Xtremolo	*	*	*	*	*	*	*	*
!LO:LB:g=original	!LO:LB:g=original	!	!	!	!	!	!	!	!
=35	=35	=35	=35	=35	=35	=35	=35	=35	=35
16E-\LL	16b-LL 16g/	.	16e-/LL	16g/LL	.	8an\L	-po-	2ryy	2ryy
16E-\	16b- 16g/	.	16e-/	16g/	.	.	.	.	.
16E-\	16b- 16g/	.	16e-/	16g/	.	8g\J	.	.	.
16E-\	16b-JJ 16g/	.	16e-/	16g/	.	.	.	.	.
16E-\	16b-LL 16g\	.	16e-/	16g/	.	8g\	-ru-	.	.
!	!LO:TX:t=P:problem:mixed beam	!	!	!	!	!	!	!	!
16E-\	16b- 16g/	.	16e-/	16g/	.	.	.	.	.
16E-\	16b- 16g/	.	16e-/	16g/	.	8ee-\	.	.	.
16E-\JJ	16ggJJ 16ee-/	.	16e-/JJ	16g/JJ	.	.	.	.	.
*	*	*	*Xtremolo	*Xtremolo	*	*	*	*	*
!	!	!	!	!	!	!LO:LB:g=original	!	!	!
=36	=36	=36	=36	=36	=36	=36	=36	=36	=36
16F\LL	8ffL 8dd\	.	8d/L	8f/L	.	8dd\	ru-	2ryy	2ryy
16F\	.	.	.	.	.	.	.	.	.
16F\	8ee- 8cc\	.	8c/	8e-/	.	8cc\	.	.	.
16F\JJ	.	.	.	.	.	.	.	.	.
16FF/LL	8dd 8b-\	.	8B-/	8d/	.	8b-\L	-szo-	.	.
16FF/	.	.	.	.	.	.	.	.	.
!	!	!	!LO:SIC:v:s=8An/J	!	!	!LO:SIC:v:s=8an\J	!	!	!
16FF/	8ccJ 8an\	.	8A-/J	8c/J	.	8a-\J	.	.	.
16FF/JJ	.	.	.	.	.	.	.	.	.
*Xtremolo	*	*	*	*	*	*	*	*	*
=37	=37	=37	=37	=37	=37	=37	=37	=37	=37
4BB-/	16b-\LL	.	16B-/LL	16d/LL	f	4b-\	-ny	2ryy	2ryy
.	32cc\L	.	16d/	16f/	.	.	.	.	.
.	32dd\JJJ	.	.	.	.	.	.	.	.
.	32ee-\LLL	.	16B-/	16d/	.	.	.	.	.
.	32ff\	.	.	.	.	.	.	.	.
.	32gg\	.	16d/JJ	16f/JJ	.	.	.	.	.
.	32aa-\JJJ	.	.	.	.	.	.	.	.
4r	8bb-\	.	8B-/	8d/	.	4r	.	.	.
.	8r	.	8r	8r	.	.	.	.	.
=38	=38	=38	=38	=38	=38	=38	=38	=38	=38
*	*tremolo	*	*tremolo	*tremolo	*	*	*	*	*
!LO:TX:t=P:problem:mixed beam	!	!	!	!	!	!	!	!	!
16DD/LL	16b-LL 16f/	.	16d/LL	16f/LL	p	4ff\	nic	2ryy	2ryy
16D\	16b- 16f/	.	16d/	16f/	.	.	.	.	.
16D\	16b- 16f/	.	16d/	16f/	.	.	.	.	.
16D\JJ	16b- 16f/	.	16d/	16f/	.	.	.	.	.
*tremolo	*	*	*	*	*	*	*	*	*
16D\LL	16b- 16f/	.	16d/	16f/	.	8dd\	nie-	.	.
16D\	16b- 16f/	.	16d/	16f/	.	.	.	.	.
16D\	16b- 16f/	.	16d/	16f/	.	8b-\	.	.	.
16D\JJ	16b-JJ 16f/	.	16d/JJ	16f/JJ	.	.	.	.	.
*	*Xtremolo	*	*	*	*	*	*	*	*
!	!	!	!	!LO:LB:g=original	!	!	!	!	!
=39	=39	=39	=39	=39	=39	=39	=39	=39	=39
16E-\LL	16b-LL 16g/	.	16e-/LL	16g/LL	.	8an\L	-po-	2ryy	2ryy
16E-\	16b- 16g/	.	16e-/	16g/	.	.	.	.	.
16E-\	16b- 16g/	.	16e-/	16g/	.	8g\J	.	.	.
16E-\	16b-JJ 16g/	.	16e-/	16g/	.	.	.	.	.
!	!LO:TX:t=P:problem:mixed beam	!	!	!	!	!	!	!	!
16E-\	16b-LL 16g/	.	16e-/	16g/	.	8g\	-ru-	.	.
16E-\	16b- 16g/	.	16e-/	16g/	.	.	.	.	.
16E-\	16b- 16g/	.	16e-/	16g/	.	8gg\	.	.	.
16E-\JJ	16ggJJ 16ee-\	.	16e-/JJ	16g/JJ	.	.	.	.	.
*	*	*	*Xtremolo	*Xtremolo	*	*	*	*	*
=40	=40	=40	=40	=40	=40	=40	=40	=40	=40
!	!	!	!	!LO:TX:t=P:problem:mixed beam	!	!	!	!	!
16F\LL	8ffL 8dd\	.	8d/L	8f/L	.	8ff\	-szo-	2ryy	2ryy
16F\	.	.	.	.	.	.	.	.	.
16F\	8ee- 8cc\	.	8g/	8ee-\	.	8ee-\	.	.	.
16F\JJ	.	.	.	.	.	.	.	.	.
16FF/LL	8dd 8f\	.	8f/	8dd\	.	8dd\L	.	.	.
16FF/	.	.	.	.	.	.	.	.	.
16FF/	8ccJ 8e-\	.	8e-/J	8cc\J	.	8cc\J	.	.	.
16FF/JJ	.	.	.	.	.	.	.	.	.
*Xtremolo	*	*	*	*	*	*	*	*	*
=41	=41	=41	=41	=41	=41	=41	=41	=41	=41
!LO:TX:t=P:problem:mixed beam	!	!	!	!	!	!	!	!	!
16BB-/LL	8b-L 8d\	.	8d/L	8b-\L	.	4b-\	-ny	2ryy	2ryy
16B-\	.	.	.	.	.	.	.	.	.
16B-\	8ff 8dd\	.	8d/	8ff\	f	.	.	.	.
16B-\JJ	.	.	.	.	.	.	.	.	.
*tremolo	*	*	*	*	*	*	*	*	*
16B-\LL	8gg 8ee-\	.	8e-/	8gg\	.	4r	.	.	.
16B-\	.	.	.	.	.	.	.	.	.
!	!LO:SIC:v:n=1:s=8aanJ	!	!	!	!	!	!	!	!
16B-\	8aa-J 8cc\	.	8c/J	8aan\J	.	.	.	.	.
16B-\JJ	.	.	.	.	.	.	.	.	.
!LO:PB:g=original	!LO:PB:g=original	!	!	!	!	!	!	!	!
=42	=42	=42	=42	=42	=42	=42	=42	=42	=42
16B-\LL	4.bb- 4.dd\	.	4.d/	4.bb-\	.	0r	.	2ryy	2ryy
16B-\	.	.	.	.	.	.	.	.	.
16B-\	.	.	.	.	.	.	.	.	.
16B-\	.	.	.	.	.	.	.	.	.
16B-\	.	.	.	.	.	.	.	.	.
16B-\	.	.	.	.	.	.	.	.	.
16B-\	8ff 8dd\	.	8d/	8ff\	.	.	.	.	.
16B-\JJ	.	.	.	.	.	.	.	.	.
=43	=43	=43	=43	=43	=43	=43	=43	=43	=43
16B-\LL	8ggL 8ee-\	.	8e-/L	8gg\L	.	.	.	2ryy	2ryy
16B-\	.	.	.	.	.	.	.	.	.
16B-\	8bb- 8gg\	.	8g/	8bb-\	.	.	.	.	.
16B-\	.	.	.	.	.	.	.	.	.
!	!LO:SIC:v:n=1:s=8aan	!	!	!LO:SIC:v:s=8aan\	!	!	!	!	!
16B-\	8aa- 8ff\	.	8f/	8aa-\	.	.	.	.	.
16B-\	.	.	.	.	.	.	.	.	.
16B-\	8ggJ 8ee-\	.	8e-/J	8gg\J	.	.	.	.	.
16B-\JJ	.	.	.	.	.	.	.	.	.
*Xtremolo	*	*	*	*	*	*	*	*	*
=44	=44	=44	=44	=44	=44	=44	=44	=44	=44
!LO:TX:t=P:problem:mixed beam	!	!	!	!	!	!	!	!	!
16BB-/LL	8ggL 8ee-\	.	8e-/L	8gg\L	.	.	.	2ryy	2ryy
16B-\	.	.	.	.	.	.	.	.	.
16B-\	16ffL 16dd\	.	8d 8B-/	8ff 8b-\	.	.	.	.	.
16B-\JJ	16ffJJ 16dd 16b-\	.	.	.	.	.	.	.	.
8B-\	8ff 8dd 8b-\	.	8dJ 8B-/	8ffJ 8b-\	.	.	.	.	.
8r	8r	.	8r	8r	.	.	.	.	.
!	!	!	!LO:LB:g=original	!	!	!	!	!	!
=45	=45	=45	=45	=45	=45	=45	=45	=45	=45
!LO:TX:t=P:problem:mixed beam	!	!	!	!	!	!	!	!	!
16BB-/LL	8ee-L 8cc\	.	8c/L	8ee-\L	.	.	.	2ryy	2ryy
16B-\	.	.	.	.	.	.	.	.	.
16B-\	8gg 8ee-\	.	8e-/	8gg\	.	.	.	.	.
16B-\JJ	.	.	.	.	.	.	.	.	.
*tremolo	*	*	*	*	*	*	*	*	*
16B-\LL	8ff 8dd\	.	8d/	8ff\	.	.	.	.	.
16B-\	.	.	.	.	.	.	.	.	.
16B-\	8ee-J 8cc\	.	8c/J	8ee-\J	.	.	.	.	.
16B-\JJ	.	.	.	.	.	.	.	.	.
*Xtremolo	*	*	*	*	*	*	*	*	*
=46	=46	=46	=46	=46	=46	=46	=46	=46	=46
!LO:TX:t=P:problem:mixed beam	!	!	!	!	!	!	!	!	!
16BB-/LL	8ee-L 8cc\	.	8c/L	8ee-\L	.	0r	.	2ryy	2ryy
16B-\	.	.	.	.	.	.	.	.	.
16B-\	16ddL 16b-\	.	8d 8B-/	8dd 8f\	.	.	.	.	.
16B-\JJ	16ddJJ 16b- 16f\	.	.	.	.	.	.	.	.
8B-\	8dd 8b- 8f\	.	8dJ 8B-/	8ddJ 8f\	.	.	.	.	.
8r	8r	.	8r	8r	.	.	.	.	.
=47	=47	=47	=47	=47	=47	=47	=47	=47	=47
4F 4FF\	8r	.	16An/LL	8.ff\L	.	.	.	2ryy	2ryy
.	.	.	16c/	.	.	.	.	.	.
.	8anL 8f 8e- 8c/	.	16A/	.	.	.	.	.	.
.	.	.	16c/JJ	16gg\Jk	.	.	.	.	.
*	*	*	*rep	*	*	*	*	*	*
4r	8a 8f 8e- 8c/	.	16A/LL	8ff\L	.	.	.	.	.
.	.	.	16c/	.	.	.	.	.	.
.	8aJ 8f 8e- 8c/	.	16A/	8ff\J	.	.	.	.	.
.	.	.	16c/JJ	.	.	.	.	.	.
*	*	*	*Xrep	*	*	*	*	*	*
=48	=48	=48	=48	=48	=48	=48	=48	=48	=48
4B- 4BB-\	8r	.	16B-/LL	16ff\LL	.	.	.	2ryy	2ryy
.	.	.	16d/	16gg\	.	.	.	.	.
!	!	!	!	!LO:SIC:v:s=16aan\	!	!	!	!	!
.	8b-L 8f 8d/	.	16B-/	16aa-\	.	.	.	.	.
.	.	.	16d/JJ	16bb-\JJ	.	.	.	.	.
*	*	*	*rep	*	*	*	*	*	*
4r	8b- 8f 8d/	.	16B-/LL	8ff\L	.	.	.	.	.
.	.	.	16d/	.	.	.	.	.	.
.	8b-J 8f 8d/	.	16B-/	8ff\J	.	.	.	.	.
.	.	.	16d/JJ	.	.	.	.	.	.
*	*	*	*Xrep	*	*	*	*	*	*
=49	=49	=49	=49	=49	=49	=49	=49	=49	=49
4F 4FF\	8r	.	16c/LL	16ff\LL	.	.	.	2ryy	2ryy
.	.	.	16e-/	16ee-\	.	.	.	.	.
.	8anL 8f 8e- 8c/	.	16c/	16dd\	.	.	.	.	.
.	.	.	16e-/JJ	16cc\JJ	.	.	.	.	.
*	*	*	*rep	*	*	*	*	*	*
4r	8a 8f 8e- 8c/	.	16c/LL	16bn\LL	.	.	.	.	.
.	.	.	16e-/	16cc\	.	.	.	.	.
.	8aJ 8f 8e- 8c/	.	16c/	16b\	.	.	.	.	.
.	.	.	16e-/JJ	16cc\JJ	.	.	.	.	.
*	*	*	*Xrep	*	*	*	*	*	*
!LO:LB:g=original	!LO:LB:g=original	!	!	!	!	!	!	!	!
=50	=50	=50	=50	=50	=50	=50	=50	=50	=50
4B- 4BB-\	8r	.	16B-/LL	8.ff\L	.	0r	.	2ryy	2ryy
.	.	.	16d/	.	.	.	.	.	.
.	8b-L 8f 8d/	.	16B-/	.	.	.	.	.	.
.	.	.	16d/JJ	16dd\Jk	.	.	.	.	.
*	*	*	*rep	*	*	*	*	*	*
4r	8b- 8f 8d/	.	16B-/LL	4b-X/	.	.	.	.	.
.	.	.	16d/	.	.	.	.	.	.
.	8b-J 8f 8d/	.	16B-/	.	.	.	.	.	.
.	.	.	16d/JJ	.	.	.	.	.	.
*	*	*	*Xrep	*	*	*	*	*	*
!	!	!	!	!LO:LB:g=original	!	!	!	!	!
=51	=51	=51	=51	=51	=51	=51	=51	=51	=51
!	!	!	!LO:SIC:v:s=16An/LL	!	!	!	!	!	!
4F 4FF\	8r	.	16A-/LL	8.ff\L	.	.	.	2ryy	2ryy
.	.	.	16c/	.	.	.	.	.	.
!	!	!	!LO:SIC:v:s=16An/	!	!	!	!	!	!
.	8anL 8f 8e- 8c/	.	16A-/	.	.	.	.	.	.
.	.	.	16c/JJ	16gg\Jk	.	.	.	.	.
*	*	*	*rep	*	*	*	*	*	*
!	!	!	!LO:SIC:v:s=16An/LL	!	!	!	!	!	!
4r	8a 8f 8e- 8c/	.	16A-/LL	8ff\L	.	.	.	.	.
.	.	.	16c/	.	.	.	.	.	.
!	!	!	!LO:SIC:v:s=16An/	!	!	!	!	!	!
.	8aJ 8f 8e- 8c/	.	16A-/	8ff\J	.	.	.	.	.
.	.	.	16c/JJ	.	.	.	.	.	.
*	*	*	*Xrep	*	*	*	*	*	*
=52	=52	=52	=52	=52	=52	=52	=52	=52	=52
4B- 4BB-\	8r	.	16B-/LL	16ff\LL	.	.	.	2ryy	2ryy
.	.	.	16d/	16gg\	.	.	.	.	.
!	!	!	!	!LO:SIC:v:s=16aan\	!	!	!	!	!
.	8b-L 8f 8d/	.	16B-/	16aa-\	.	.	.	.	.
.	.	.	16d/JJ	16bb-\JJ	.	.	.	.	.
*	*	*	*rep	*	*	*	*	*	*
4r	8b- 8f 8d/	.	16B-/LL	8ff\L	.	.	.	.	.
.	.	.	16d/	.	.	.	.	.	.
.	8b-J 8f 8d/	.	16B-/	8ff\J	.	.	.	.	.
.	.	.	16d/JJ	.	.	.	.	.	.
*	*	*	*Xrep	*	*	*	*	*	*
=53	=53	=53	=53	=53	=53	=53	=53	=53	=53
*tremolo	*	*	*	*	*	*	*	*	*
16E-\LL	4b- 4g 4e-/	.	16e-/LL	16gg\LL	.	.	.	2ryy	2ryy
16E-\	.	.	16e-/	16dd\	.	.	.	.	.
16E-\	.	.	16e-/	16ee-\	.	.	.	.	.
16E-\JJ	.	.	16e-/JJ	16cc\JJ	.	.	.	.	.
*Xtremolo	*	*	*	*	*	*	*	*	*
!LO:TX:t=P:problem:mixed beam	!	!	!	!	!	!	!	!	!
16F\LL	8b-L 8d/	.	16d/LL	8b-/L	.	.	.	.	.
16F\	.	.	16d/	.	.	.	.	.	.
!	!LO:SIC:v:n=1:s=8anJ	!	!	!	!	!	!	!	!
16FF/	8a-J 8c/	.	16c/	8an/J	.	.	.	.	.
16FF/JJ	.	.	16c/JJ	.	.	.	.	.	.
!	!	!	!LO:LB:g=original	!	!	!	!	!	!
=54	=54	=54	=54	=54	=54	=54	=54	=54	=54
8BB-/L	8b-L 8d\	.	8B-/L	8b-\L	.	0r	.	2ryy	2ryy
16DL 16DD/	16ffL 16dd 16b-\	.	16d/L	16ffL 16b-\	.	.	.	.	.
16DJJ 16DD/	16ffJJ 16dd 16b-\	.	16d/JJ	16ffJJ 16b-\	.	.	.	.	.
8E- 8EE-/	8gg 8ee- 8b-\	.	8e-/	8gg 8b- 8e-\	.	.	.	.	.
8r	16r	.	16r	16r	.	.	.	.	.
!	!LO:SIC:v:s=16aan\	!	!	!	!	!	!	!	!
.	16aa-\	.	16c/	16aan\	.	.	.	.	.
=55	=55	=55	=55	=55	=55	=55	=55	=55	=55
16D\LL	16bb-\LL	.	16d/LL	16bb-\LL	.	.	.	2ryy	2ryy
16D\	16ff\	.	16d/	16ff\	.	.	.	.	.
16E-\	16gg\	.	16e-/	16gg\	.	.	.	.	.
16E-\JJ	16ee-\JJ	.	16e-/JJ	16ee-\JJ	.	.	.	.	.
!LO:TX:t=P:problem:mixed beam	!	!	!	!	!	!	!	!	!
16F\LL	8ddL 8b-\	.	16f/LL	8dd\L	.	.	.	.	.
16F\	.	.	16f/	.	.	.	.	.	.
!	!LO:SIC:v:n=2:s=8an\	!	!	!	!	!	!	!	!
16FF/	8ccJ 8a-\	.	16f/	8cc\J	.	.	.	.	.
16FF/JJ	.	.	16f/JJ	.	.	.	.	.	.
=56	=56	=56	=56	=56	=56	=56	=56	=56	=56
!	!LO:TX:t=P:problem:takty nr 56-57 zapisane repetycją	!	!LO:TX:t=P:problem:takty nr 56-57 zapisane repetycją	!	!	!	!	!	!
8BB-/Lyy	8b-Lyy 8d\yy	.	8B-/Lyy	8b-\L	.	.	.	2ryy	2ryy
16DLyy 16DD/yy	16ffLyy 16ddyy 16b-\yy	.	16d/Lyy	16ffL 16b-\	.	.	.	.	.
16DJJyy 16DD/yy	16ffJJyy 16ddyy 16b-\yy	.	16d/JJyy	16ffJJ 16b-\	.	.	.	.	.
8E-yy 8EE-/yy	8ggyy 8ee-yy 8b-\yy	.	8e-/yy	8gg 8b- 8e-\	.	.	.	.	.
8ryy	16ryy	.	16ryy	16r	.	.	.	.	.
!	!LO:SIC:v:s=16aan\	!	!	!	!	!	!	!	!
.	16aa-\yy	.	16c/yy	16aan\	.	.	.	.	.
=57	=57	=57	=57	=57	=57	=57	=57	=57	=57
16D\LLyy	16bb-\LLyy	.	16d/LLyy	16bb-\LL	.	.	.	2ryy	2ryy
16D\yy	16ff\yy	.	16d/yy	16ff\	.	.	.	.	.
16E-\yy	16gg\yy	.	16e-/yy	16gg\	.	.	.	.	.
16E-\JJyy	16ee-\JJyy	.	16e-/JJyy	16ee-\JJ	.	.	.	.	.
!LO:TX:t=P:problem:mixed beam	!	!	!	!	!	!	!	!	!
16F\LLyy	8ddLyy 8b-\yy	.	16f/LLyy	8dd\L	.	.	.	.	.
16F\yy	.	.	16f/yy	.	.	.	.	.	.
!	!LO:SIC:v:n=2:s=8an\	!	!	!	!	!	!	!	!
16FF/yy	8ccJyy 8a-\yy	.	16f/yy	8cc\J	.	.	.	.	.
16FF/JJyy	.	.	16f/JJyy	.	.	.	.	.	.
=58	=58	=58	=58	=58	=58	=58	=58	=58	=58
!LO:TX:t=P:problem:mixed beam	!	!	!	!	!	!	!	!	!
16BB-/LL	8b-/L	.	8d/L	8b-/L	.	2r	.	2ryy	2ryy
16B-\	.	.	.	.	.	.	.	.	.
16F\	8bb- 8ff 8dd/	.	8d/	8bb- 8b-/	.	.	.	.	.
16D\JJ	.	.	.	.	.	.	.	.	.
8BB-/	8bb-J 8ff 8dd/	.	8d/J	8bb-J 8b-/	.	.	.	.	.
8r	8r	.	8r	8r	.	.	.	.	.
!	!	!	!	!	!	!LO:LB:g=original	!	!	!
=59	=59	=59	=59	=59	=59	=59	=59	=59	=59
*	*	*	*	*	*	*clefF4	*	*	*
!LO:TX:t=P:problem:mixed beam	!	!	!LO:TX:a:t=37	!LO:TX:a:t=37	!	!LO:TX:a:i:t=Bas Solo	!	!	!
16BB-/LL	8ddL 8f/	.	0r	0r	.	8F\	U-	2ryy	2ryy
16B-\	.	.	.	.	.	.	.	.	.
16B-\	8dd 8f/	.	.	.	.	8F\	-mysł	.	.
16B-\JJ	.	.	.	.	.	.	.	.	.
*tremolo	*	*	*	*	*	*	*	*	*
16B-\LL	8ee- 8g/	.	.	.	.	8G\	u-	.	.
16B-\	.	.	.	.	.	.	.	.	.
!	!LO:SIC:v:n=2:s=8an/	!	!	!	!	!	!	!	!
16B-\	8ccJ 8a-/	.	.	.	.	8An\	-tra-	.	.
16B-\JJ	.	.	.	.	.	.	.	.	.
*Xtremolo	*	*	*	*	*	*	*	*	*
!LO:LB:g=original	!LO:LB:g=original	!	!	!	!	!	!	!	!
=60	=60	=60	=60	=60	=60	=60	=60	=60	=60
!LO:TX:t=P:problem:mixed beam	!	!	!	!	!	!	!	!	!
16BB-/LL	4.dd 4.b-/	.	.	.	.	4.B-\	-pie-	2ryy	2ryy
16B-\	.	.	.	.	.	.	.	.	.
16B-\	.	.	.	.	.	.	.	.	.
16B-\JJ	.	.	.	.	.	.	.	.	.
*tremolo	*	*	*	*	*	*	*	*	*
16B-\LL	.	.	.	.	.	.	.	.	.
16B-\	.	.	.	.	.	.	.	.	.
16B-\	8dd 8f/	.	.	.	.	8F\	-niem	.	.
16B-\JJ	.	.	.	.	.	.	.	.	.
=61	=61	=61	=61	=61	=61	=61	=61	=61	=61
*rep	*	*	*	*	*	*	*	*	*
16B-\LL	8ee-L 8g/	.	.	.	.	8G\L	sro-	2ryy	2ryy
16B-\	.	.	.	.	.	.	.	.	.
16B-\	8ee- 8b-/	.	.	.	.	8B-\J	.	.	.
16B-\JJ	.	.	.	.	.	.	.	.	.
*Xrep	*	*	*	*	*	*	*	*	*
*rep	*	*	*	*	*	*	*	*	*
!	!LO:SIC:v:n=2:s=8an/	!	!	!	!	!LO:SIC:v:s=8An\	!	!	!
16B-\LL	8ee- 8a-/	.	.	.	.	8A-\	-dze	.	.
16B-\	.	.	.	.	.	.	.	.	.
16B-\	8ee-J 8g/	.	.	.	.	8G\	sci-	.	.
16B-\JJ	.	.	.	.	.	.	.	.	.
*Xrep	*	*	*	*	*	*	*	*	*
=62	=62	=62	=62	=62	=62	=62	=62	=62	=62
*rep	*	*	*	*	*	*	*	*	*
16B-\LL	8ee-L 8g/	.	.	.	.	8G\	-snio-	2ryy	2ryy
16B-\	.	.	.	.	.	.	.	.	.
16B-\	16ddL 16f/	.	.	.	.	8F\	-ny	.	.
16B-\JJ	16ddJJ 16f/	.	.	.	.	.	.	.	.
*Xrep	*	*	*	*	*	*	*	*	*
*Xtremolo	*	*	*	*	*	*	*	*	*
8B-\	8dd 8b- 8f/	.	.	.	.	4r	.	.	.
8r	8r	.	.	.	.	.	.	.	.
=63	=63	=63	=63	=63	=63	=63	=63	=63	=63
*	*	*	*	*	*	*	*ij	*	*
!LO:TX:t=P:problem:mixed beam	!	!	!	!	!	!	!	!	!
16BB-/LL	8ccL 8e-/	.	0r	0r	.	8E-\L	sro-	2ryy	2ryy
16B-\	.	.	.	.	.	.	.	.	.
16B-\	8ee- 8g/	.	.	.	.	8G\J	.	.	.
16B-\JJ	.	.	.	.	.	.	.	.	.
*tremolo	*	*	*	*	*	*	*	*	*
16B-\LL	8dd 8f/	.	.	.	.	8F\	-dze	.	.
16B-\	.	.	.	.	.	.	.	.	.
16B-\	8ccJ 8e-/	.	.	.	.	8E-\	sci-	.	.
16B-\JJ	.	.	.	.	.	.	.	.	.
*Xtremolo	*	*	*	*	*	*	*	*	*
=64	=64	=64	=64	=64	=64	=64	=64	=64	=64
!LO:TX:t=P:problem:mixed beam	!	!	!	!	!	!	!	!	!
16BB-/LL	8ccL 8e-/	.	.	.	.	8E-\L	-snio-	2ryy	2ryy
16B-\	.	.	.	.	.	.	.	.	.
16B-\	16b-L 16d/	.	.	.	.	8D\J	-ny	.	.
*	*	*	*	*	*	*	*Xij	*	*
16B-\JJ	16b-JJ 16f 16d/	.	.	.	.	.	.	.	.
8B-\	8b- 8f 8d/	.	.	.	.	4r	.	.	.
8r	8r	.	.	.	.	.	.	.	.
=65	=65	=65	=65	=65	=65	=65	=65	=65	=65
4BB-/	4f 4d/	.	.	.	.	4F\	A	2ryy	2ryy
4B-\	8a-XL 8f/	.	.	.	.	8A-X\	u-	.	.
.	8a-J 8f/	.	.	.	.	8A-\	-por	.	.
!	!	!	!	!	!	!LO:LB:g=original	!	!	!
=66	=66	=66	=66	=66	=66	=66	=66	=66	=66
4EE-/	8gL 8e-/	.	.	.	.	8G\L	w_złym	2ryy	2ryy
.	8a-J 8f/	.	.	.	.	8A-\J	.	.	.
4E-\	4b- 4g/	.	.	.	.	4B-\	trwa	.	.
=67	=67	=67	=67	=67	=67	=67	=67	=67	=67
8r	8b-L 8g/	.	0r	0r	.	8B-\L	nic	2ryy	2ryy
8E-\L	8gJ 8e-/	.	.	.	.	8G\J	nie-	.	.
8G\	8.ee-L 8.g\	.	.	.	.	8.e-\	-po-	.	.
8E-\J	.	.	.	.	.	.	.	.	.
.	16gJk 16e-\	.	.	.	.	16G\	-ru-	.	.
=68	=68	=68	=68	=68	=68	=68	=68	=68	=68
!LO:TX:t=P:problem:mixed beam	!	!	!	!	!	!	!	!	!
8B-\L	8gL 8e-/	.	.	.	.	8G\	-szo-	2ryy	2ryy
8BB-/	8fJ 8d/	.	.	.	.	8F\	-ny	.	.
8B-\J	4r	.	.	.	.	4r	.	.	.
8r	.	.	.	.	.	.	.	.	.
!LO:LB:g=original	!LO:LB:g=original	!	!	!	!	!	!	!	!
=69	=69	=69	=69	=69	=69	=69	=69	=69	=69
*	*tremolo	*	*	*	*	*	*	*	*
!LO:TX:t=P:problem:mixed beam	!	!	!	!	!	!	!	!	!
16GG/LL	16e-LL 16B-/	.	.	.	.	8B-\	U-	2ryy	2ryy
16G\	16e- 16B-/	.	.	.	.	.	.	.	.
16G\	16e- 16B-/	.	.	.	.	8G\	-mysł	.	.
16G\JJ	16e- 16B-/	.	.	.	.	.	.	.	.
*tremolo	*	*	*	*	*	*	*	*	*
16G\LL	16e- 16B-/	.	.	.	.	8F\	u-	.	.
16G\	16e- 16B-/	.	.	.	.	.	.	.	.
16G\	16e- 16B-/	.	.	.	.	8E-\	-tra-	.	.
16G\JJ	16e-JJ 16B-/	.	.	.	.	.	.	.	.
=70	=70	=70	=70	=70	=70	=70	=70	=70	=70
16A-\LL	16e-LL 16c/	.	.	.	.	8d-X\	-pie-	2ryy	2ryy
16A-\	16e- 16c/	.	.	.	.	.	.	.	.
16A-\	16e- 16c/	.	.	.	.	8c\	-niem	.	.
16A-\	16e- 16c/	.	.	.	.	.	.	.	.
16A-\	16e- 16c/	.	.	.	.	4r	.	.	.
16A-\	16e- 16c/	.	.	.	.	.	.	.	.
16A-\	16e- 16c/	.	.	.	.	.	.	.	.
16A-\JJ	16e-JJ 16c/	.	.	.	.	.	.	.	.
=71	=71	=71	=71	=71	=71	=71	=71	=71	=71
16An\LL	16fLL 16c/	.	0r	0r	.	8c\L	sro-	2ryy	2ryy
16A\	16f 16c/	.	.	.	.	.	.	.	.
16A\	16f 16c/	.	.	.	.	8An\J	.	.	.
16A\	16f 16c/	.	.	.	.	.	.	.	.
16A\	16f 16c/	.	.	.	.	8G\	-dze	.	.
16A\	16f 16c/	.	.	.	.	.	.	.	.
16A\	16f 16c/	.	.	.	.	8F\	sci-	.	.
16A\JJ	16fJJ 16c/	.	.	.	.	.	.	.	.
!	!	!	!	!	!	!LO:LB:g=original	!	!	!
=72	=72	=72	=72	=72	=72	=72	=72	=72	=72
16B-\LL	16fLL 16d/	.	.	.	.	8e-\	-snio-	2ryy	2ryy
16B-\	16f 16d/	.	.	.	.	.	.	.	.
16B-\	16f 16d/	.	.	.	.	8d\	-ny	.	.
16B-\	16f 16d/	.	.	.	.	.	.	.	.
16B-\	16f 16d/	.	.	.	.	4r	.	.	.
16B-\	16f 16d/	.	.	.	.	.	.	.	.
16B-\	16f 16d/	.	.	.	.	.	.	.	.
16B-\JJ	16fJJ 16d/	.	.	.	.	.	.	.	.
*Xtremolo	*Xtremolo	*	*	*	*	*	*	*	*
=73	=73	=73	=73	=73	=73	=73	=73	=73	=73
*	*^	*	*	*	*	*	*	*	*
4D 4DD\	16a-/LL	4f\	.	.	.	.	4F\	A	2ryy	2ryy
.	16b-/	.	.	.	.	.	.	.	.	.
.	16a-/	.	.	.	.	.	.	.	.	.
.	16b-/JJ	.	.	.	.	.	.	.	.	.
8DL 8DD\	16a-/LL	8f\L	.	.	.	.	8c\	u-	.	.
.	16b-/	.	.	.	.	.	.	.	.	.
8DJ 8DD\	16a-/	8f\J	.	.	.	.	8A-X\	-pur	.	.
.	16b-/JJ	.	.	.	.	.	.	.	.	.
=74	=74	=74	=74	=74	=74	=74	=74	=74	=74	=74
4E- 4EE-/	16g/LL	4e-\	.	.	.	.	8G\L	w_złym	2ryy	2ryy
.	16b-/	.	.	.	.	.	.	.	.	.
.	16g/	.	.	.	.	.	8A-\J	.	.	.
.	16b-/JJ	.	.	.	.	.	.	.	.	.
4E- 4EE-/	16g/LL	8e-\L	.	.	.	.	8B-\	trwa	.	.
.	16b-/	.	.	.	.	.	.	.	.	.
.	16g/	8e-\J	.	.	.	.	8G\	nic	.	.
.	16b-/JJ	.	.	.	.	.	.	.	.	.
*	*v	*v	*	*	*	*	*	*	*	*
=75	=75	=75	=75	=75	=75	=75	=75	=75	=75
*	*tremolo	*	*	*	*	*	*	*	*
16A-\LL	16ccLL 16a- 16f\	.	0r	0r	.	8A-\	nie-	2ryy	2ryy
16A-\	16cc 16a- 16f\	.	.	.	.	.	.	.	.
16A-\	16cc 16a- 16f\	.	.	.	.	8F\	-po-	.	.
16A-\JJ	16ccJJ 16a- 16f\	.	.	.	.	.	.	.	.
*	*Xtremolo	*	*	*	*	*	*	*	*
!LO:TX:t=P:problem:mixed beam	!	!	!	!	!	!	!	!	!
16B-\LL	16ee-LL 16g\	.	.	.	.	8E-\L	-ru-	.	.
16B-\	16ee- 16g\	.	.	.	.	.	.	.	.
16BB-/	16ee- 16g\	.	.	.	.	8D\J	-szo-	.	.
16BB-/JJ	16ee-JJ 16g\	.	.	.	.	.	.	.	.
=76	=76	=76	=76	=76	=76	=76	=76	=76	=76
!	!LO:TX:t=P:problem:mixed beam	!	!	!	!	!	!	!	!
16E-\LL	16ee-\LL	.	.	.	.	4E-\	-ny	2ryy	2ryy
16E-\	16e-/	.	.	.	.	.	.	.	.
16G\	16g/	.	.	.	.	.	.	.	.
16B-\JJ	16b-/JJ	.	.	.	.	.	.	.	.
8e-\	8ee-\	.	.	.	.	4r	.	.	.
8r	8r	.	.	.	.	.	.	.	.
=77	=77	=77	=77	=77	=77	=77	=77	=77	=77
*	*tremolo	*	*	*	*	*	*	*	*
!LO:TX:t=P:problem:mixed beam	!LO:TX:t=P:problem:takty nr 77-84 zapisane repetycją	!	!	!	!	!	!	!	!
16GG/LLyy	16e-LLyy 16B-/yy	.	.	.	.	8B-\	U-	2ryy	2ryy
16G\yy	16e-yy 16B-/yy	.	.	.	.	.	.	.	.
16G\yy	16e-yy 16B-/yy	.	.	.	.	8G\	-mysł	.	.
16G\JJyy	16e-yy 16B-/yy	.	.	.	.	.	.	.	.
*tremolo	*	*	*	*	*	*	*	*	*
16G\LLyy	16e-yy 16B-/yy	.	.	.	.	8F\	u-	.	.
16G\yy	16e-yy 16B-/yy	.	.	.	.	.	.	.	.
16G\yy	16e-yy 16B-/yy	.	.	.	.	8E-\	-tra-	.	.
16G\JJyy	16e-JJyy 16B-/yy	.	.	.	.	.	.	.	.
=78	=78	=78	=78	=78	=78	=78	=78	=78	=78
16A-\LLyy	16e-LLyy 16c/yy	.	.	.	.	8d-X\	-pie-	2ryy	2ryy
16A-\yy	16e-yy 16c/yy	.	.	.	.	.	.	.	.
16A-\yy	16e-yy 16c/yy	.	.	.	.	8c\	-niem	.	.
16A-\yy	16e-yy 16c/yy	.	.	.	.	.	.	.	.
16A-\yy	16e-yy 16c/yy	.	.	.	.	4r	.	.	.
16A-\yy	16e-yy 16c/yy	.	.	.	.	.	.	.	.
16A-\yy	16e-yy 16c/yy	.	.	.	.	.	.	.	.
16A-\JJyy	16e-JJyy 16c/yy	.	.	.	.	.	.	.	.
!	!	!	!	!	!	!LO:LB:g=original	!	!	!
=79	=79	=79	=79	=79	=79	=79	=79	=79	=79
16An\LLyy	16fLLyy 16c/yy	.	0r	0r	.	8c\L	Sro-	2ryy	2ryy
16A\yy	16fyy 16c/yy	.	.	.	.	.	.	.	.
16A\yy	16fyy 16c/yy	.	.	.	.	8An\J	.	.	.
16A\yy	16fyy 16c/yy	.	.	.	.	.	.	.	.
16A\yy	16fyy 16c/yy	.	.	.	.	8G\	-dze	.	.
16A\yy	16fyy 16c/yy	.	.	.	.	.	.	.	.
16A\yy	16fyy 16c/yy	.	.	.	.	8F\	sci-	.	.
16A\JJyy	16fJJyy 16c/yy	.	.	.	.	.	.	.	.
=80	=80	=80	=80	=80	=80	=80	=80	=80	=80
16B-\LLyy	16fLLyy 16d/yy	.	.	.	.	8e-\	-snio-	2ryy	2ryy
16B-\yy	16fyy 16d/yy	.	.	.	.	.	.	.	.
16B-\yy	16fyy 16d/yy	.	.	.	.	8d\	-ny	.	.
16B-\yy	16fyy 16d/yy	.	.	.	.	.	.	.	.
16B-\yy	16fyy 16d/yy	.	.	.	.	4r	.	.	.
16B-\yy	16fyy 16d/yy	.	.	.	.	.	.	.	.
16B-\yy	16fyy 16d/yy	.	.	.	.	.	.	.	.
16B-\JJyy	16fJJyy 16d/yy	.	.	.	.	.	.	.	.
*Xtremolo	*Xtremolo	*	*	*	*	*	*	*	*
=81	=81	=81	=81	=81	=81	=81	=81	=81	=81
*	*^	*	*	*	*	*	*	*	*
4Dyy 4DD\yy	16a-/LLyy	4f\yy	.	.	.	.	4F\	A	2ryy	2ryy
.	16b-/yy	.	.	.	.	.	.	.	.	.
.	16a-/yy	.	.	.	.	.	.	.	.	.
.	16b-/JJyy	.	.	.	.	.	.	.	.	.
8DLyy 8DD\yy	16a-/LLyy	8f\Lyy	.	.	.	.	8c\	u-	.	.
.	16b-/yy	.	.	.	.	.	.	.	.	.
8DJyy 8DD\yy	16a-/yy	8f\Jyy	.	.	.	.	8A-X\	-por	.	.
.	16b-/JJyy	.	.	.	.	.	.	.	.	.
=82	=82	=82	=82	=82	=82	=82	=82	=82	=82	=82
4E-yy 4EE-/yy	16g/LLyy	4e-\yy	.	.	.	.	8G\L	w_złym	2ryy	2ryy
.	16b-/yy	.	.	.	.	.	.	.	.	.
.	16g/yy	.	.	.	.	.	8A-\J	.	.	.
.	16b-/JJyy	.	.	.	.	.	.	.	.	.
4E-yy 4EE-/yy	16g/LLyy	8e-\Lyy	.	.	.	.	8B-\	trwa	.	.
.	16b-/yy	.	.	.	.	.	.	.	.	.
.	16g/yy	8e-\Jyy	.	.	.	.	16r	.	.	.
.	16b-/JJyy	.	.	.	.	.	16G\	nic	.	.
*	*v	*v	*	*	*	*	*	*	*	*
=83	=83	=83	=83	=83	=83	=83	=83	=83	=83
*	*tremolo	*	*	*	*	*	*	*	*
16A-\LLyy	16ccLLyy 16a-yy 16f\yy	.	1r	1r	.	8A-\	nie-	2ryy	2ryy
16A-\yy	16ccyy 16a-yy 16f\yy	.	.	.	.	.	.	.	.
16A-\yy	16ccyy 16a-yy 16f\yy	.	.	.	.	8F\	-po-	.	.
16A-\JJyy	16ccJJyy 16a-yy 16f\yy	.	.	.	.	.	.	.	.
*	*Xtremolo	*	*	*	*	*	*	*	*
!LO:TX:t=P:problem:mixed beam	!	!	!	!	!	!	!	!	!
16B-\LLyy	16ee-LLyy 16g\yy	.	.	.	.	8E-\L	-ru-	.	.
16B-\yy	16ee-yy 16g\yy	.	.	.	.	.	.	.	.
16BB-/yy	16ee-yy 16g\yy	.	.	.	.	8D\J	-szo-	.	.
16BB-/JJyy	16ee-JJyy 16g\yy	.	.	.	.	.	.	.	.
=84	=84	=84	=84	=84	=84	=84	=84	=84	=84
!	!LO:TX:t=P:problem:mixed beam	!	!	!	!	!	!	!	!
16E-\LLyy	16ee-\LLyy	.	.	.	.	4E-\	-ny	2ryy	2ryy
16E-\yy	16e-/yy	.	.	.	.	.	.	.	.
16G\yy	16g/yy	.	.	.	.	.	.	.	.
16B-\JJyy	16b-/JJyy	.	.	.	.	.	.	.	.
8e-\yy	8ee-\yy	.	.	.	.	8r	.	.	.
8ryy	8ryy	.	.	.	.	8B-\	A	.	.
=85	=85	=85	=85	=85	=85	=85	=85	=85	=85
*	*^	*	*	*	*	*	*	*	*
!	!LO:TX:a:t=P:problem:zbędne powtórzenie taktów nr 81-84	!	!LO:TX:t=P:problem:zbędne powtórzenie w org	!LO:TX:t=P:problem:zbędne powtórzenie w org	!LO:TX:t=P:problem:zbędne powtórzenie w org	!	!LO:TX:t=P:problem:zbędne powtórzenie w org	!	!	!
4D 4DD/	16a-/LL	4f\	.	2ryy	2ryy	.	2ryy	.	2ryy	2ryy
.	16b-/	.	.	.	.	.	.	.	.	.
.	16a-/	.	.	.	.	.	.	.	.	.
.	16b-/JJ	.	.	.	.	.	.	.	.	.
8DL 8DD/	16a-/LL	8f\L	.	.	.	.	.	.	.	.
.	16b-/	.	.	.	.	.	.	.	.	.
8DJ 8DD/	16a-/	8f\J	.	.	.	.	.	.	.	.
.	16b-/JJ	.	.	.	.	.	.	.	.	.
!LO:LB:g=original	!LO:LB:g=original	!	!	!	!	!	!	!	!	!
=86	=86	=86	=86	=86	=86	=86	=86	=86	=86	=86
4E- 4EE-/	16g/LL	4e-\	.	2ryy	2ryy	.	2ryy	.	2ryy	2ryy
.	16b-/	.	.	.	.	.	.	.	.	.
.	16g/	.	.	.	.	.	.	.	.	.
.	16b-/JJ	.	.	.	.	.	.	.	.	.
4E- 4EE-/	16g/LL	8e-\L	.	.	.	.	.	.	.	.
.	16b-/	.	.	.	.	.	.	.	.	.
.	16g/	8e-\J	.	.	.	.	.	.	.	.
.	16b-/JJ	.	.	.	.	.	.	.	.	.
*	*v	*v	*	*	*	*	*	*	*	*
=87	=87	=87	=87	=87	=87	=87	=87	=87	=87
*	*tremolo	*	*	*	*	*	*	*	*
16A-\LL	16ccLL 16a- 16f\	.	2ryy	2ryy	.	2ryy	.	2ryy	2ryy
16A-\	16cc 16a- 16f\	.	.	.	.	.	.	.	.
16A-\	16cc 16a- 16f\	.	.	.	.	.	.	.	.
16A-\JJ	16ccJJ 16a- 16f\	.	.	.	.	.	.	.	.
*	*Xtremolo	*	*	*	*	*	*	*	*
!LO:TX:t=P:problem:mixed beam	!	!	!	!	!	!	!	!	!
16B-\LL	16ee-LL 16g\	.	.	.	.	.	.	.	.
16B-\	16ee- 16g\	.	.	.	.	.	.	.	.
16BB-\	16dd 16f\	.	.	.	.	.	.	.	.
16BB-\JJ	16ddJJ 16f\	.	.	.	.	.	.	.	.
=88	=88	=88	=88	=88	=88	=88	=88	=88	=88
!	!LO:TX:t=P:problem:mixed beam	!	!	!	!	!	!	!	!
16E-\LL	16ee-\LL	.	2ryy	2ryy	.	2ryy	.	2ryy	2ryy
16E-\	16e-/	.	.	.	.	.	.	.	.
16G\	16g/	.	.	.	.	.	.	.	.
16B-\JJ	16b-/JJ	.	.	.	.	.	.	.	.
8e-\	8ee-\	.	.	.	.	.	.	.	.
8r	8r	.	.	.	.	.	.	.	.
=89	=89	=89	=89	=89	=89	=89	=89	=89	=89
4r	4r	.	1r	1r	.	8G\	u-	2ryy	2ryy
.	.	.	.	.	.	8E-\	-por	.	.
!	!	!	!	!	!	!LO:LB:g=original	!	!	!
8r	8r	.	.	.	.	8D\L	w_złym	.	.
8BB-/	8a- 8f 8d/	.	.	.	.	8F\J	.	.	.
=90	=90	=90	=90	=90	=90	=90	=90	=90	=90
16E-\LL	16gLL 16e-/	.	.	.	.	8E-\	trwa	2ryy	2ryy
16E-\	16e-/	.	.	.	.	.	.	.	.
16G\	16g/	.	.	.	.	8r	.	.	.
16B-\JJ	16b-/JJ	.	.	.	.	.	.	.	.
8e-\	8ee-\	.	.	.	.	8r	.	.	.
*	*	*	*	*	*	*	*ij	*	*
8r	8r	.	.	.	.	8B-\	A	.	.
=91	=91	=91	=91	=91	=91	=91	=91	=91	=91
4r	4r	.	0r	0r	.	8G\L	u-	2ryy	2ryy
.	.	.	.	.	.	8E-\J	-por	.	.
8r	8r	.	.	.	.	8D\L	w_złym	.	.
8BB-/	8a- 8f 8d/	.	.	.	.	8F\J	.	.	.
=92	=92	=92	=92	=92	=92	=92	=92	=92	=92
8E-\L	8gL 8e-/	.	.	.	.	8E-\	trwa	2ryy	2ryy
*	*	*	*	*	*	*	*Xij	*	*
8E-\	8e-/	.	.	.	.	8E-\	nic	.	.
8F\	8f/	.	.	.	.	8F\	nie-	.	.
8G\J	8f/J	.	.	.	.	8G\	-po-	.	.
=93	=93	=93	=93	=93	=93	=93	=93	=93	=93
8A-\L	8a-/L	.	.	.	.	8A-\L	-ru-	2ryy	2ryy
8B-\	8b-/	.	.	.	.	8B-\J	.	.	.
8c\	8cc/	.	.	.	.	8c\	-szo-	.	.
8d\J	8dd/J	.	.	.	.	8d\	-ny	.	.
!LO:LB:g=original	!LO:LB:g=original	!	!	!	!	!	!	!	!
=94	=94	=94	=94	=94	=94	=94	=94	=94	=94
4e-\	4ee-/	.	.	.	.	4e-\	nic	2ryy	2ryy
4c\	4cc/	.	.	.	.	4c\	nie	.	.
=95	=95	=95	=95	=95	=95	=95	=95	=95	=95
4A-\	4a-/	.	0r	0r	.	4A-\	po-	2ryy	2ryy
4B-\	4b-/	.	.	.	.	4B-\	-ru-	.	.
=96	=96	=96	=96	=96	=96	=96	=96	=96	=96
*tremolo	*	*	*	*	*	*	*	*	*
16E-\LL	8e-/L	.	.	.	.	4E-\	-szony	2ryy	2ryy
16E-\	.	.	.	.	.	.	.	.	.
16E-\	8b- 8g/	.	.	.	.	.	.	.	.
16E-\	.	.	.	.	.	.	.	.	.
16E-\	8cc 8a-/	.	.	.	.	4r	.	.	.
16E-\	.	.	.	.	.	.	.	.	.
16E-\	8ddJ 8f/	.	.	.	.	.	.	.	.
16E-\JJ	.	.	.	.	.	.	.	.	.
=97	=97	=97	=97	=97	=97	=97	=97	=97	=97
16E-\LL	4.ee- 4.g/	.	.	.	.	0r	.	2ryy	2ryy
16E-\	.	.	.	.	.	.	.	.	.
16E-\	.	.	.	.	.	.	.	.	.
16E-\	.	.	.	.	.	.	.	.	.
16E-\	.	.	.	.	.	.	.	.	.
16E-\	.	.	.	.	.	.	.	.	.
16E-\	8b- 8g/	.	.	.	.	.	.	.	.
16E-\JJ	.	.	.	.	.	.	.	.	.
=98	=98	=98	=98	=98	=98	=98	=98	=98	=98
16E-\LL	8ccL 8a-/	.	.	.	.	.	.	2ryy	2ryy
16E-\	.	.	.	.	.	.	.	.	.
16E-\	8ee- 8cc/	.	.	.	.	.	.	.	.
16E-\	.	.	.	.	.	.	.	.	.
16E-\	8dd 8b-/	.	.	.	.	.	.	.	.
16E-\	.	.	.	.	.	.	.	.	.
16E-\	8ccJ 8a-/	.	.	.	.	.	.	.	.
16E-\JJ	.	.	.	.	.	.	.	.	.
*Xtremolo	*	*	*	*	*	*	*	*	*
=99	=99	=99	=99	=99	=99	=99	=99	=99	=99
!LO:TX:t=P:problem:mixed beam	!	!	!LO:TX:t=[segno]:problem:znak segno na kresce taktowej	!LO:TX:t=[segno]:problem:znak segno na kresce taktowej	!	!	!	!	!
16EE-/LL	8b-L 8g/	.	2r	2r	.	.	.	2ryy	2ryy
16E-\	.	.	.	.	.	.	.	.	.
16E-\	8gg 8ee- 8b-/	.	.	.	.	.	.	.	.
16E-\JJ	.	.	.	.	.	.	.	.	.
8E-\	8ggJ 8ee- 8b-/	.	.	.	.	.	.	.	.
!LO:TX:a:i:t=al Segno	!	!	!	!	!	!	!	!	!
8r	8r	.	.	.	.	.	.	.	.
=100	=100	=100	=100	=100	=100	=100	=100	=100	=100
2ryy	2ryy	.	2ryy	2ryy	.	.	.	2ryy	2ryy
=101	=101	=101	=101	=101	=101	=101	=101	=101	=101
2ryy	2ryy	.	2ryy	2ryy	.	0r	.	2ryy	2ryy
=102	=102	=102	=102	=102	=102	=102	=102	=102	=102
2ryy	2ryy	.	2ryy	2ryy	.	.	.	2ryy	2ryy
=103	=103	=103	=103	=103	=103	=103	=103	=103	=103
2ryy	2ryy	.	2ryy	2ryy	.	.	.	2ryy	2ryy
=104	=104	=104	=104	=104	=104	=104	=104	=104	=104
2ryy	2ryy	.	2ryy	2ryy	.	.	.	2ryy	2ryy
=105	=105	=105	=105	=105	=105	=105	=105	=105	=105
2ryy	2ryy	.	2ryy	2ryy	.	0r	.	2ryy	2ryy
=106	=106	=106	=106	=106	=106	=106	=106	=106	=106
2ryy	2ryy	.	2ryy	2ryy	.	.	.	2ryy	2ryy
=107	=107	=107	=107	=107	=107	=107	=107	=107	=107
2ryy	2ryy	.	2ryy	2ryy	.	.	.	2ryy	2ryy
=108	=108	=108	=108	=108	=108	=108	=108	=108	=108
2ryy	2ryy	.	2ryy	2ryy	.	.	.	2ryy	2ryy
=109	=109	=109	=109	=109	=109	=109	=109	=109	=109
2ryy	2ryy	.	2ryy	2ryy	.	0r	.	2ryy	2ryy
=110	=110	=110	=110	=110	=110	=110	=110	=110	=110
2ryy	2ryy	.	2ryy	2ryy	.	.	.	2ryy	2ryy
=111	=111	=111	=111	=111	=111	=111	=111	=111	=111
2ryy	2ryy	.	2ryy	2ryy	.	.	.	2ryy	2ryy
=112	=112	=112	=112	=112	=112	=112	=112	=112	=112
2ryy	2ryy	.	2ryy	2ryy	.	.	.	2ryy	2ryy
=113	=113	=113	=113	=113	=113	=113	=113	=113	=113
2ryy	2ryy	.	2ryy	2ryy	.	0r	.	2ryy	2ryy
=114	=114	=114	=114	=114	=114	=114	=114	=114	=114
2ryy	2ryy	.	2ryy	2ryy	.	.	.	2ryy	2ryy
=115	=115	=115	=115	=115	=115	=115	=115	=115	=115
2ryy	2ryy	.	2ryy	2ryy	.	.	.	2ryy	2ryy
=116	=116	=116	=116	=116	=116	=116	=116	=116	=116
2ryy	2ryy	.	2ryy	2ryy	.	.	.	2ryy	2ryy
=117	=117	=117	=117	=117	=117	=117	=117	=117	=117
2ryy	2ryy	.	2ryy	2ryy	.	1r	.	2ryy	2ryy
=118	=118	=118	=118	=118	=118	=118	=118	=118	=118
2ryy	2ryy	.	2ryy	2ryy	.	.	.	2ryy	2ryy
==	==	==	==	==	==	==	==	==	==
*-	*-	*-	*-	*-	*-	*-	*-	*-	*-
!!!system-decoration: [(g1)][(g2)]{(p6)}
!!!RDF**dynam: pp = "pp."
!!!RDF**dynam: f = "for."
!!!RDF**dynam: p = "p."
!!!AIN: 1 bass 1 organ 1 soprn 1 tenor 2 violn
!!!ENC: Marta Opryszak
!!!END: 2021-11-25
!!!ENC: Andrzej Kubiczek
!!!END: 2021-12-08
